X:6274
T:Staten Island Hornpipe. JMT086
O:england
M:4/4
L:1/8
S:J.Moore,Tyneside,1841.(63a)
R:Hornpipe
A:Northumbria
K:D
AG|FDFGA2A2|defdc2Ac|B2GBA2FA|G2E2E2AG|
FDFGA2A2|"? sic, see notes"defdc|A2^d2d2| {e/f/g/e/}fdd2:|
|:fg|a2fag2eg|f2dfe2A2|=c2c2efge|=c2c2efge|
a2fag2eg|f2dfe2A2|d2d2efge|f2d2d2:|]


